X:1
T:Title
%%score { ( 1 3 4 5 ) | ( 2 6 7 ) }
L:1/8
M:4/4
K:D
V:1 treble nm="Grand Piano"
V:3 treble 
V:4 treble 
V:5 treble 
V:2 bass 
V:6 bass 
V:7 bass 
V:1
 z4 z2[Q:1/4=108] F>G | A2 G>F A2 G>F | G2 z2 z2 E>F | G2 F>E F2 E>D |[M:3/4] [DF]2 z2 z2 | %5
[M:1/4] F>G |[M:4/4] A2 G>F A2 G>F | G2 z2 z2 E>F | G2 F>E F2 E>D |[M:3/4] [DF]2 z2[K:bass] z2 | %10
[M:1/4] D>[K:treble]E |[M:4/4] F2 E>D F2 E>D | F2 z2 z4 | F2 z2 E2 z2 | z2 A6 | %15
 A>^G AB A2 [G,=G]2 | G>F GA [CG]2 [DF]2 | A>^G AB A2 [G,=G]2 | G>F GA [CG]2 FE | F2 ED E2 DC | %20
[M:3/4] D6 |] %21
V:2
 z8 | [A,,D,F,]4 [A,,D,F,]4 | [A,,E,G,]4 z2 C2 | [A,,E,G,]4 [A,,E,G,]4 |[M:3/4] [A,,D,F,]4 z2 | %5
[M:1/4] z2 |[M:4/4] D4 [A,,D,F,]4 | [A,,E,G,]4 z2 C2 | [A,,E,G,]4 [A,,E,G,]4 | %9
[M:3/4] [A,,D,F,]4 [A,,D,]2- |[M:1/4] [A,,D,]2 |[M:4/4] [A,,D,F,]4 [A,,D,F,]4 | z2 E4 z2 | %13
 [A,,D,F,]4 [A,,E,G,]4 | [A,,D,F,]4 [A,,D,]4 | [A,,D,F,]4 [A,,D,F,]2 [C,E,]2 | %16
 [A,,E,G,]4 [A,,E,G,]2 [A,,D,F,]2 | [A,,D,F,]4 [A,,D,F,]2 [C,E,]2 | %18
 [A,,E,G,]4 [A,,E,G,]2 [A,,D,F,]2 | [A,,D,F,A,]4 [A,,C,G,A,]4 |[M:3/4] [A,,D,F,A,]6 |] %21
V:3
 x8 | D4 D4 | z2 E4 z2 | C4 C4 |[M:3/4] z2 D4 |[M:1/4] x2 |[M:4/4] z4 D4 | z2 E4 z2 | C4 C4 | %9
[M:3/4] z2 D4[K:bass] |[M:1/4] x3/2[K:treble] x/ |[M:4/4] D4 D4 | C4- [E,G,C]4 | %13
 D2- [DE]>D C2- [CD]>C | D8 | D4 D4 | C4 z4 | D4 D4 | C4 z2 D2 | x8 |[M:3/4] x6 |] %21
V:4
 x8 | x8 | C6 z2 | x8 |[M:3/4] z2 z2 F,2- |[M:1/4] F,2- |[M:4/4] F,4 z4 | C6 z2 | x8 | %9
[M:3/4] z2 z2[K:bass] F,2- |[M:1/4] F,2[K:treble] |[M:4/4] x8 | x8 | x8 | z4 F,4 | x8 | x8 | x8 | %18
 x8 | x8 |[M:3/4] x6 |] %21
V:5
 x8 | x8 | z4 G,4 | x8 |[M:3/4] x6 |[M:1/4] x2 |[M:4/4] x8 | z4 G,4 | x8 |[M:3/4] x4[K:bass] x2 | %10
[M:1/4] x3/2[K:treble] x/ |[M:4/4] x8 | x8 | x8 | x8 | x8 | x8 | x8 | x8 | x8 |[M:3/4] x6 |] %21
V:6
 x8 | x8 | z4 [A,,E,]4 | x8 |[M:3/4] z2 z2 [A,,D,]2- |[M:1/4] [A,,D,]2- |[M:4/4] [A,,D,]4 z4 | %7
 z4 [A,,E,]4 | x8 |[M:3/4] x6 |[M:1/4] x2 |[M:4/4] x8 | z4 z2 D>E | x8 | x8 | x8 | x8 | x8 | x8 | %19
 x8 |[M:3/4] x6 |] %21
V:7
 x8 | x8 | x8 | x8 |[M:3/4] x6 |[M:1/4] x2 |[M:4/4] x8 | x8 | x8 |[M:3/4] x6 |[M:1/4] x2 | %11
[M:4/4] x8 | [A,,E,G,]4 A,,4 | x8 | x8 | x8 | x8 | x8 | x8 | x8 |[M:3/4] x6 |] %21

